packages/foundations/icons/Activities/Speak.svg

<svg width="24" height="24" viewBox="0 0 24 24" fill="none" xmlns="http://www.w3.org/2000/svg">
<path d="M14.8593 2.50027C17.7986 4.70602 19.5672 8.18446 19.5672 11.9582C19.5672 15.7318 17.7986 19.2103 14.8593 21.416C14.4175 21.7475 13.7907 21.6582 13.4592 21.2164C13.1277 20.7747 13.2171 20.1478 13.6588 19.8164C16.0988 17.9853 17.5672 15.0974 17.5672 11.9582C17.5672 8.81893 16.0988 5.93097 13.6588 4.09994C13.2171 3.76845 13.1277 3.14163 13.4592 2.69989C13.7907 2.25815 14.4175 2.16878 14.8593 2.50027ZM10.3674 5.55605C12.3574 7.04943 13.5548 9.40438 13.5548 11.9582C13.5548 14.5119 12.3574 16.8669 10.3674 18.3603C9.92563 18.6917 9.29881 18.6024 8.96732 18.1606C8.63583 17.7189 8.7252 17.0921 9.16694 16.7606C10.6576 15.6419 11.5548 13.8774 11.5548 11.9582C11.5548 10.0389 10.6576 8.27438 9.16694 7.15573C8.7252 6.82423 8.63583 6.19741 8.96732 5.75567C9.29881 5.31393 9.92563 5.22456 10.3674 5.55605ZM4.50022 8.81145C4.83171 8.36971 5.45854 8.28034 5.90028 8.61183C6.94103 9.39284 7.56715 10.6243 7.56715 11.9582C7.56715 13.292 6.94103 14.5235 5.90028 15.3045C5.45854 15.636 4.83171 15.5466 4.50022 15.1049C4.16873 14.6631 4.25811 14.0363 4.69984 13.7048C5.24125 13.2985 5.56715 12.6575 5.56715 11.9582C5.56715 11.2588 5.24125 10.6178 4.69984 10.2115C4.25811 9.88001 4.16873 9.25319 4.50022 8.81145Z" fill="#3D474D"/>
</svg>

<svg width="24" height="24" fill="none" xmlns="http://www.w3.org/2000/svg"><path d="M14.86 2.5a11.797 11.797 0 014.707 9.458c0 3.774-1.768 7.252-4.708 9.458a1 1 0 11-1.2-1.6 9.797 9.797 0 003.908-7.858A9.797 9.797 0 0013.66 4.1a1 1 0 011.2-1.6zm-4.493 3.056a7.986 7.986 0 013.188 6.402 7.986 7.986 0 01-3.188 6.402 1 1 0 01-1.2-1.6 5.986 5.986 0 002.388-4.802c0-1.92-.897-3.684-2.388-4.802a1 1 0 111.2-1.6zM4.5 8.811a1 1 0 011.4-.2 4.175 4.175 0 011.667 3.347A4.175 4.175 0 015.9 15.305a1 1 0 01-1.2-1.6 2.176 2.176 0 00.867-1.747c0-.7-.326-1.34-.867-1.747a1 1 0 01-.2-1.4z" fill="#3D474D"/></svg>
